X:7
T:Coleman's Cross
S:Bernie Waugh
R:Jig
M:6/8
L:1/8
K:E minor
|:A|\
"Em"~B2e efe|~B2e efe|"D"~A2d ded|~A2d dBA|
"Em"~B2e efe|"C"Bee g2a|"Am"bag agf|"D"gfd "Em"e2:|
        |:f|\
"G"gdB ~GAG|"D"FDF AFD|"G"GBd "Em"efg|"D"~fd^c d2f|
"G"gdB ~GAG|"D"FDF AFD|"G"GBd "Em"efg|"D"~fd^c d2:|


